X: 132
T: Mrs Hamilton of Sundrum's (Junr) Reel
C: attr. John French (1753-1803)
R: reel
B: "John French Collection", John French ed. p.13 #2
S: http://www.heallan.com/french.asp
Z: 2012 John Chambers <jc:trillian.mit.edu>
M: C
L: 1/8
K: Am
E | ABcd ecBA | G2Bd gdBG | ABcd egdc | BAGB A/A/A A :|
g | ae (f/e/d/c/) (ae)e(c | d)egc TBAGg | ae (f/e/d/c/) (ae)e(c | TB)AGB A/A/A (Ag) |
    aece ae(f/e/d/c) | gdBd gd (e/d/c/B/) | cdea gedc | TBAGB A/A/A A |]

%%sep 2 1 500
%%sep 1 1 500

